assets/images/photoshop.svg

<svg width="128" height="30" viewBox="0 0 128 30" fill="none" xmlns="http://www.w3.org/2000/svg">
<path d="M36.7744 22C36.7744 22 36.7744 17.5674 36.7744 8.70215C36.7744 8.70215 37.873 8.70215 40.0703 8.70215C40.9785 8.70215 41.6904 8.75195 42.2061 8.85156C42.7275 8.95117 43.1875 9.12695 43.5859 9.37891C44.125 9.73047 44.541 10.2021 44.834 10.7939C45.127 11.3857 45.2734 12.0537 45.2734 12.7979C45.2734 13.5889 45.1064 14.3066 44.7725 14.9512C44.4443 15.5957 43.9932 16.0791 43.4189 16.4014C43.0557 16.6006 42.625 16.7412 42.127 16.8232C41.6289 16.9053 40.9316 16.9463 40.0352 16.9463H39.2441V22H36.7744ZM39.2441 14.582H39.9648C40.7148 14.582 41.2773 14.5234 41.6523 14.4062C42.0039 14.3066 42.2793 14.1191 42.4785 13.8438C42.6836 13.5684 42.7861 13.2402 42.7861 12.8594C42.7861 12.4375 42.6836 12.0771 42.4785 11.7783C42.2734 11.4795 41.9922 11.2803 41.6348 11.1807C41.2832 11.0986 40.7617 11.0576 40.0703 11.0576H39.2441V14.582ZM46.7939 22C46.7939 22 46.7939 17.5674 46.7939 8.70215C46.7939 8.70215 47.5908 8.70215 49.1846 8.70215C49.1846 8.70215 49.1846 10.0381 49.1846 12.71C49.8701 12.0889 50.7168 11.7783 51.7246 11.7783C52.457 11.7783 53.1074 11.9219 53.6758 12.209C54.25 12.4902 54.6982 12.8975 55.0205 13.4307C55.2432 13.7998 55.3984 14.2041 55.4863 14.6436C55.5801 15.083 55.627 15.6572 55.627 16.3662V22H53.2363C53.2363 22 53.2363 20.3008 53.2363 16.9023C53.2363 15.8477 53.0869 15.1006 52.7881 14.6611C52.4951 14.2158 51.9971 13.9932 51.2939 13.9932C50.4443 13.9932 49.8496 14.3271 49.5098 14.9951C49.293 15.3877 49.1846 16.0381 49.1846 16.9463V22C49.1846 22 48.3877 22 46.7939 22ZM62.4121 11.7959C63.3613 11.7959 64.2402 12.0303 65.0488 12.499C65.8574 12.9678 66.4961 13.6064 66.9648 14.415C67.4336 15.2178 67.668 16.0908 67.668 17.0342C67.668 17.9717 67.4307 18.8418 66.9561 19.6445C66.4873 20.4414 65.8457 21.0742 65.0312 21.543C64.2168 22.0059 63.332 22.2373 62.377 22.2373C61.416 22.2373 60.5254 22.0059 59.7051 21.543C58.8906 21.0742 58.2461 20.4414 57.7715 19.6445C57.2969 18.8418 57.0596 17.9717 57.0596 17.0342C57.0596 16.3193 57.1973 15.6396 57.4727 14.9951C57.7539 14.3447 58.1318 13.7881 58.6064 13.3252C59.0869 12.8564 59.6582 12.4844 60.3203 12.209C60.9824 11.9336 61.6797 11.7959 62.4121 11.7959ZM62.3154 13.9932C61.542 13.9932 60.874 14.292 60.3115 14.8896C59.7549 15.4814 59.4766 16.1904 59.4766 17.0166C59.4766 17.8486 59.7578 18.5605 60.3203 19.1523C60.8828 19.7441 61.5596 20.04 62.3506 20.04C63.1475 20.04 63.8301 19.7471 64.3984 19.1611C64.9668 18.5693 65.251 17.8604 65.251 17.0342C65.251 16.1787 64.9668 15.458 64.3984 14.8721C63.8301 14.2861 63.1357 13.9932 62.3154 13.9932ZM69.4082 22C69.4082 22 69.4082 19.4014 69.4082 14.2041C69.4082 14.2041 69.0186 14.2041 68.2393 14.2041C68.2393 14.2041 68.2393 13.4775 68.2393 12.0244C68.2393 12.0244 68.6289 12.0244 69.4082 12.0244C69.4082 12.0244 69.4082 10.917 69.4082 8.70215C69.4082 8.70215 70.2051 8.70215 71.7988 8.70215C71.7988 8.70215 71.7988 9.80957 71.7988 12.0244C71.7988 12.0244 72.2793 12.0244 73.2402 12.0244C73.2402 12.0244 73.2402 12.751 73.2402 14.2041C73.2402 14.2041 72.7598 14.2041 71.7988 14.2041C71.7988 14.2041 71.7988 16.8027 71.7988 22C71.7988 22 71.002 22 69.4082 22ZM79.252 11.7959C80.2012 11.7959 81.0801 12.0303 81.8887 12.499C82.6973 12.9678 83.3359 13.6064 83.8047 14.415C84.2734 15.2178 84.5078 16.0908 84.5078 17.0342C84.5078 17.9717 84.2705 18.8418 83.7959 19.6445C83.3271 20.4414 82.6855 21.0742 81.8711 21.543C81.0566 22.0059 80.1719 22.2373 79.2168 22.2373C78.2559 22.2373 77.3652 22.0059 76.5449 21.543C75.7305 21.0742 75.0859 20.4414 74.6113 19.6445C74.1367 18.8418 73.8994 17.9717 73.8994 17.0342C73.8994 16.3193 74.0371 15.6396 74.3125 14.9951C74.5938 14.3447 74.9717 13.7881 75.4463 13.3252C75.9268 12.8564 76.498 12.4844 77.1602 12.209C77.8223 11.9336 78.5195 11.7959 79.252 11.7959ZM79.1553 13.9932C78.3818 13.9932 77.7139 14.292 77.1514 14.8896C76.5947 15.4814 76.3164 16.1904 76.3164 17.0166C76.3164 17.8486 76.5977 18.5605 77.1602 19.1523C77.7227 19.7441 78.3994 20.04 79.1904 20.04C79.9873 20.04 80.6699 19.7471 81.2383 19.1611C81.8066 18.5693 82.0908 17.8604 82.0908 17.0342C82.0908 16.1787 81.8066 15.458 81.2383 14.8721C80.6699 14.2861 79.9756 13.9932 79.1553 13.9932ZM85.2725 18.8359C85.2725 18.8359 86.0752 18.8359 87.6807 18.8359C87.7979 19.2578 87.9619 19.5654 88.1729 19.7588C88.3838 19.9463 88.665 20.04 89.0166 20.04C89.333 20.04 89.5908 19.9492 89.79 19.7676C89.9951 19.5801 90.0977 19.3457 90.0977 19.0645C90.0977 18.7363 89.9453 18.4785 89.6406 18.291C89.5117 18.2148 89.3857 18.1504 89.2627 18.0977C89.1396 18.0449 88.8525 17.9424 88.4014 17.79C87.4053 17.4561 86.6934 17.0635 86.2656 16.6123C85.8438 16.1611 85.6328 15.5693 85.6328 14.8369C85.6328 13.9814 85.9492 13.2607 86.582 12.6748C87.2207 12.0889 88.0088 11.7959 88.9463 11.7959C89.4619 11.7959 89.9482 11.8984 90.4053 12.1035C90.8682 12.3086 91.2578 12.5957 91.5742 12.9648C91.791 13.2227 91.9463 13.4893 92.04 13.7646C92.1396 14.04 92.1982 14.3799 92.2158 14.7842H89.8779C89.7725 14.2568 89.4619 13.9932 88.9463 13.9932C88.6885 13.9932 88.4688 14.0752 88.2871 14.2393C88.1113 14.3975 88.0234 14.5967 88.0234 14.8369C88.0234 15.1416 88.1787 15.3643 88.4893 15.5049C88.6592 15.5752 89.0693 15.7129 89.7197 15.918C90.7275 16.2285 91.4395 16.6035 91.8555 17.043C92.2773 17.4824 92.4883 18.0801 92.4883 18.8359C92.4883 19.791 92.1426 20.5967 91.4512 21.2529C90.7598 21.9092 89.916 22.2373 88.9199 22.2373C88.3047 22.2373 87.7246 22.1084 87.1797 21.8506C86.6406 21.5869 86.2129 21.2354 85.8965 20.7959C85.709 20.5264 85.5684 20.248 85.4746 19.9609C85.3809 19.6738 85.3135 19.2988 85.2725 18.8359ZM93.8682 22C93.8682 22 93.8682 17.5674 93.8682 8.70215C93.8682 8.70215 94.665 8.70215 96.2588 8.70215C96.2588 8.70215 96.2588 10.0381 96.2588 12.71C96.9443 12.0889 97.791 11.7783 98.7988 11.7783C99.5312 11.7783 100.182 11.9219 100.75 12.209C101.324 12.4902 101.772 12.8975 102.095 13.4307C102.317 13.7998 102.473 14.2041 102.561 14.6436C102.654 15.083 102.701 15.6572 102.701 16.3662V22H100.311C100.311 22 100.311 20.3008 100.311 16.9023C100.311 15.8477 100.161 15.1006 99.8623 14.6611C99.5693 14.2158 99.0713 13.9932 98.3682 13.9932C97.5186 13.9932 96.9238 14.3271 96.584 14.9951C96.3672 15.3877 96.2588 16.0381 96.2588 16.9463V22C96.2588 22 95.4619 22 93.8682 22ZM109.486 11.7959C110.436 11.7959 111.314 12.0303 112.123 12.499C112.932 12.9678 113.57 13.6064 114.039 14.415C114.508 15.2178 114.742 16.0908 114.742 17.0342C114.742 17.9717 114.505 18.8418 114.03 19.6445C113.562 20.4414 112.92 21.0742 112.105 21.543C111.291 22.0059 110.406 22.2373 109.451 22.2373C108.49 22.2373 107.6 22.0059 106.779 21.543C105.965 21.0742 105.32 20.4414 104.846 19.6445C104.371 18.8418 104.134 17.9717 104.134 17.0342C104.134 16.3193 104.271 15.6396 104.547 14.9951C104.828 14.3447 105.206 13.7881 105.681 13.3252C106.161 12.8564 106.732 12.4844 107.395 12.209C108.057 11.9336 108.754 11.7959 109.486 11.7959ZM109.39 13.9932C108.616 13.9932 107.948 14.292 107.386 14.8896C106.829 15.4814 106.551 16.1904 106.551 17.0166C106.551 17.8486 106.832 18.5605 107.395 19.1523C107.957 19.7441 108.634 20.04 109.425 20.04C110.222 20.04 110.904 19.7471 111.473 19.1611C112.041 18.5693 112.325 17.8604 112.325 17.0342C112.325 16.1787 112.041 15.458 111.473 14.8721C110.904 14.2861 110.21 13.9932 109.39 13.9932ZM116.21 25.3311C116.21 25.3311 116.21 20.8955 116.21 12.0244C116.21 12.0244 116.939 12.0244 118.398 12.0244C118.398 12.0244 118.398 12.417 118.398 13.2021C119.189 12.2646 120.282 11.7959 121.677 11.7959C122.626 11.7959 123.479 12.0186 124.234 12.4639C124.99 12.9033 125.579 13.5186 126.001 14.3096C126.429 15.1006 126.643 15.9912 126.643 16.9814C126.643 17.9775 126.429 18.877 126.001 19.6797C125.573 20.4766 124.979 21.1035 124.217 21.5605C123.461 22.0117 122.608 22.2373 121.659 22.2373C121.05 22.2373 120.502 22.1436 120.016 21.9561C119.529 21.7686 119.058 21.4727 118.601 21.0684V25.3311H116.21ZM121.316 13.9932C120.508 13.9932 119.828 14.2861 119.277 14.8721C118.732 15.4521 118.46 16.1787 118.46 17.0518C118.46 17.9014 118.741 18.6133 119.304 19.1875C119.866 19.7559 120.561 20.04 121.387 20.04C122.189 20.04 122.863 19.7529 123.408 19.1787C123.959 18.5986 124.234 17.8838 124.234 17.0342C124.234 16.1553 123.959 15.4287 123.408 14.8545C122.857 14.2803 122.16 13.9932 121.316 13.9932Z" fill="#111111"/>
<g clip-path="url(#clip0_2811_71)">
<path d="M0.625 10.8916C0.625 7.12298 0.625 5.23863 1.35843 3.79919C2.00358 2.53302 3.03302 1.50358 4.29919 0.858433C5.73863 0.125 7.62298 0.125 11.3916 0.125H19.6084C23.3771 0.125 25.2614 0.125 26.7008 0.858433C27.967 1.50358 28.9964 2.53302 29.6416 3.79919C30.375 5.23863 30.375 7.12298 30.375 10.8916V19.1084C30.375 22.8771 30.375 24.7614 29.6416 26.2008C28.9964 27.467 27.967 28.4964 26.7008 29.1416C25.2614 29.875 23.3771 29.875 19.6084 29.875H11.3916C7.62298 29.875 5.73863 29.875 4.29919 29.1416C3.03302 28.4964 2.00358 27.467 1.35843 26.2008C0.625 24.7614 0.625 22.8771 0.625 19.1084V10.8916Z" fill="#001E36"/>
<path d="M7 21.9235V8.84111C7 8.75218 7.03719 8.70129 7.12396 8.70129C8.40494 8.70129 9.68536 8.625 10.9666 8.625C13.0458 8.625 15.2971 9.33592 16.0862 11.511C16.2721 12.045 16.3713 12.5916 16.3713 13.1638C16.3713 14.2572 16.1234 15.1598 15.6275 15.8718C14.2424 17.8606 11.8418 17.8297 9.68993 17.8297V21.9108C9.70672 22.0316 9.60376 22.0888 9.50399 22.0888H7.14875C7.04959 22.0888 7 22.0379 7 21.9235ZM9.70226 11.155V15.4268C10.5555 15.4893 11.4484 15.4961 12.2682 15.2234C13.1733 14.9623 13.669 14.1789 13.669 13.2401C13.6941 12.4401 13.2582 11.6726 12.5162 11.3839C11.7062 11.0471 10.5766 11.0269 9.70226 11.155Z" fill="#31A8FF"/>
<path d="M24.1028 14.5829C23.7277 14.3851 23.3282 14.2405 22.9153 14.153C22.3846 14.0281 20.2917 13.5908 20.2909 14.6852C20.3095 15.2961 21.2793 15.5954 21.7078 15.77C23.2122 16.2865 24.9146 17.2097 24.8811 19.0656C24.9271 21.3759 22.6886 22.2995 20.7699 22.2997C19.771 22.31 18.7304 22.1553 17.8162 21.7265C17.7289 21.6803 17.6728 21.5816 17.6765 21.4808V19.2702C17.6666 19.1816 17.7618 19.1041 17.8362 19.1679C18.7319 19.7095 19.7935 19.9726 20.8298 19.9866C21.2872 19.9866 22.1937 19.9423 22.1869 19.2702C22.1869 18.6253 21.1024 18.3287 20.6701 18.1649C20.0434 17.9412 19.4493 17.6313 18.9039 17.2438C18.1417 16.7001 17.6635 15.8284 17.6765 14.8694C17.672 12.6941 19.7325 11.7176 21.5882 11.7172C22.4556 11.71 23.3872 11.7743 24.1947 12.1266C24.3108 12.1607 24.3349 12.2831 24.3344 12.3926V14.46C24.3418 14.5884 24.1993 14.6321 24.1028 14.5829Z" fill="#31A8FF"/>
</g>
<defs>
<clipPath id="clip0_2811_71">
<rect width="30" height="30" fill="white" transform="translate(0.5)"/>
</clipPath>
</defs>
</svg>

<svg width="128" height="30" fill="none" xmlns="http://www.w3.org/2000/svg"><path d="M36.774 22V8.702h3.296c.908 0 1.62.05 2.136.15.521.1.981.275 1.38.527.539.351.955.823 1.248 1.415.293.592.44 1.26.44 2.004 0 .79-.168 1.509-.502 2.153-.328.645-.779 1.128-1.353 1.45-.363.2-.794.34-1.292.422-.498.082-1.195.123-2.092.123h-.79V22h-2.47Zm2.47-7.418h.72c.75 0 1.313-.059 1.688-.176.352-.1.627-.287.826-.562.206-.276.308-.604.308-.985 0-.421-.102-.782-.308-1.08a1.469 1.469 0 0 0-.843-.598c-.352-.082-.873-.123-1.565-.123h-.826v3.524ZM46.794 22V8.702h2.39v4.008c.686-.621 1.533-.932 2.54-.932.733 0 1.383.144 1.952.431a3.158 3.158 0 0 1 1.344 1.222c.223.369.378.773.466 1.213.094.439.141 1.013.141 1.722V22h-2.39v-5.098c0-1.054-.15-1.801-.449-2.24-.293-.446-.79-.669-1.494-.669-.85 0-1.444.334-1.784 1.002-.217.393-.325 1.043-.325 1.951V22h-2.391Zm15.618-10.204c.95 0 1.828.234 2.637.703a5.182 5.182 0 0 1 1.916 1.916c.469.803.703 1.676.703 2.62 0 .937-.237 1.807-.712 2.61a5.204 5.204 0 0 1-1.925 1.898 5.28 5.28 0 0 1-2.654.694 5.346 5.346 0 0 1-2.672-.694 5.272 5.272 0 0 1-1.933-1.898 5.039 5.039 0 0 1-.712-2.61c0-.716.137-1.395.413-2.04.28-.65.659-1.207 1.133-1.67a5.387 5.387 0 0 1 1.714-1.116 5.393 5.393 0 0 1 2.092-.413Zm-.097 2.197c-.773 0-1.441.299-2.003.897a2.996 2.996 0 0 0-.835 2.127c0 .832.28 1.544.843 2.135.563.592 1.24.888 2.03.888.797 0 1.48-.293 2.048-.879.569-.592.853-1.3.853-2.127 0-.855-.284-1.576-.853-2.162a2.79 2.79 0 0 0-2.083-.879ZM69.408 22v-7.796H68.24v-2.18h1.17V8.702h2.39v3.322h1.441v2.18H71.8V22h-2.39Zm9.844-10.204c.95 0 1.828.234 2.637.703a5.183 5.183 0 0 1 1.916 1.916c.468.803.703 1.676.703 2.62 0 .937-.237 1.807-.712 2.61a5.205 5.205 0 0 1-1.925 1.898 5.28 5.28 0 0 1-2.654.694c-.961 0-1.852-.231-2.672-.694a5.272 5.272 0 0 1-1.934-1.898 5.039 5.039 0 0 1-.712-2.61c0-.716.138-1.395.413-2.04.282-.65.66-1.207 1.134-1.67a5.386 5.386 0 0 1 1.714-1.116 5.392 5.392 0 0 1 2.092-.413Zm-.097 2.197c-.773 0-1.441.299-2.004.897a2.995 2.995 0 0 0-.835 2.127c0 .832.282 1.544.844 2.135.563.592 1.24.888 2.03.888.797 0 1.48-.293 2.048-.879.569-.592.853-1.3.853-2.127 0-.855-.284-1.576-.853-2.162a2.79 2.79 0 0 0-2.083-.879Zm6.117 4.843h2.409c.117.422.28.73.492.923.21.187.492.281.844.281.316 0 .574-.09.773-.272a.913.913 0 0 0 .308-.704c0-.328-.153-.585-.457-.773a3.294 3.294 0 0 0-.378-.193 15.52 15.52 0 0 0-.862-.308c-.996-.334-1.708-.726-2.135-1.178-.422-.45-.633-1.043-.633-1.775 0-.856.316-1.576.949-2.162.639-.586 1.427-.88 2.364-.88.516 0 1.002.103 1.46.309a3.25 3.25 0 0 1 1.168.86c.217.259.372.525.466.8.1.276.158.616.176 1.02h-2.338c-.106-.527-.416-.79-.932-.79a.949.949 0 0 0-.659.245.77.77 0 0 0-.264.598c0 .305.156.527.466.668.17.07.58.208 1.23.413 1.009.31 1.72.686 2.137 1.125.421.44.632 1.037.632 1.793 0 .955-.345 1.76-1.037 2.417-.691.656-1.535.984-2.531.984a4.019 4.019 0 0 1-1.74-.386 3.367 3.367 0 0 1-1.284-1.055 3.202 3.202 0 0 1-.421-.835c-.094-.287-.161-.662-.203-1.125ZM93.868 22V8.702h2.39v4.008c.686-.621 1.533-.932 2.54-.932.733 0 1.384.144 1.952.431a3.164 3.164 0 0 1 1.345 1.222c.222.369.378.773.466 1.213.093.439.14 1.013.14 1.722V22h-2.39v-5.098c0-1.054-.15-1.801-.449-2.24-.293-.446-.79-.669-1.494-.669-.85 0-1.444.334-1.784 1.002-.217.393-.325 1.043-.325 1.951V22h-2.39Zm15.618-10.204c.95 0 1.828.234 2.637.703a5.181 5.181 0 0 1 1.916 1.916 5.1 5.1 0 0 1 .703 2.62c0 .937-.237 1.807-.712 2.61a5.279 5.279 0 0 1-4.579 2.593 5.348 5.348 0 0 1-2.672-.695 5.27 5.27 0 0 1-1.933-1.898 5.035 5.035 0 0 1-.712-2.61c0-.716.137-1.395.413-2.04a5.158 5.158 0 0 1 1.134-1.67 5.372 5.372 0 0 1 1.714-1.116 5.39 5.39 0 0 1 2.091-.413Zm-.096 2.197c-.774 0-1.442.299-2.004.897a2.994 2.994 0 0 0-.835 2.127c0 .832.281 1.544.844 2.135.562.592 1.239.888 2.03.888.797 0 1.479-.293 2.048-.879.568-.592.852-1.3.852-2.127 0-.855-.284-1.576-.852-2.162a2.792 2.792 0 0 0-2.083-.879Zm6.82 11.338V12.024h2.188v1.178c.791-.937 1.884-1.406 3.279-1.406.949 0 1.802.223 2.557.668a4.583 4.583 0 0 1 1.767 1.846c.428.79.642 1.681.642 2.671 0 .996-.214 1.896-.642 2.699a4.793 4.793 0 0 1-1.784 1.88c-.756.452-1.609.677-2.558.677a4.537 4.537 0 0 1-1.643-.28 4.69 4.69 0 0 1-1.415-.889v4.263h-2.391Zm5.106-11.338c-.808 0-1.488.293-2.039.88-.545.58-.817 1.306-.817 2.179 0 .85.281 1.561.844 2.136.562.568 1.257.852 2.083.852.802 0 1.476-.287 2.021-.861.551-.58.826-1.295.826-2.145 0-.879-.275-1.605-.826-2.18-.551-.574-1.248-.86-2.092-.86Z" fill="#111"/><g clip-path="url(#a)"><path d="M.625 10.892c0-3.769 0-5.653.733-7.093A6.73 6.73 0 0 1 4.3.86C5.74.124 7.623.124 11.392.124h8.216c3.77 0 5.653 0 7.093.733A6.73 6.73 0 0 1 29.64 3.8c.734 1.44.734 3.324.734 7.093v8.216c0 3.77 0 5.653-.733 7.093a6.73 6.73 0 0 1-2.941 2.94c-1.44.734-3.324.734-7.093.734h-8.216c-3.769 0-5.653 0-7.093-.733A6.73 6.73 0 0 1 1.36 26.2c-.734-1.44-.734-3.324-.734-7.093v-8.216Z" fill="#001E36"/><path d="M7 21.924V8.84c0-.089.037-.14.124-.14 1.28 0 2.561-.076 3.843-.076 2.079 0 4.33.71 5.12 2.886.185.534.284 1.08.284 1.653 0 1.093-.248 1.996-.743 2.708-1.386 1.989-3.786 1.958-5.938 1.958v4.08c.017.122-.086.179-.186.179H7.149c-.1 0-.149-.051-.149-.165Zm2.702-10.769v4.272c.854.062 1.746.07 2.566-.204.905-.26 1.401-1.044 1.401-1.983.025-.8-.41-1.567-1.153-1.856-.81-.337-1.94-.357-2.814-.229ZM24.103 14.583a4.582 4.582 0 0 0-1.188-.43c-.53-.125-2.623-.562-2.624.532.018.611.988.91 1.417 1.085 1.504.517 3.207 1.44 3.173 3.296.046 2.31-2.192 3.233-4.111 3.234-.999.01-2.04-.145-2.954-.573a.27.27 0 0 1-.14-.246v-2.21c-.01-.09.086-.167.16-.103.896.541 1.958.805 2.994.819.457 0 1.364-.045 1.357-.717 0-.645-1.085-.941-1.517-1.105a7.268 7.268 0 0 1-1.766-.921c-.762-.544-1.24-1.416-1.227-2.375-.005-2.175 2.056-3.151 3.911-3.152.868-.007 1.8.057 2.607.41.116.034.14.156.14.266v2.067c.007.128-.136.172-.232.123Z" fill="#31A8FF"/></g><defs><clipPath id="a"><path fill="#fff" transform="translate(.5)" d="M0 0h30v30H0z"/></clipPath></defs></svg>
